X:903
L:1/8
Q:1/4=200
M:2/2
K:Dmix
"^A" A3 B AGFE | DccB c2 Bc | A3 B AGFE | DGGF G2 FG | A3 B AGFE | Ddde f3 g | afge fded | 
 dcAF G4 :|"^B" A3 g fde^c | Ad d2 Ad d2 | A3 g fde^c | dcAF G2 FG | A3 g fde^c | Add^c defg | 
 afge fded | dcAF G4 :|

